www/images/pieces/cburnett/bR.svg

<svg xmlns="http://www.w3.org/2000/svg" width="45" height="45"><g fill-rule="evenodd" stroke="#000" stroke-width="1.5" stroke-linecap="round" stroke-linejoin="round"><path d="M9 39h27v-3H9v3zM12.5 32l1.5-2.5h17l1.5 2.5h-20zM12 36v-4h21v4H12z" stroke-linecap="butt"/><path d="M14 29.5v-13h17v13H14z" stroke-linecap="butt" stroke-linejoin="miter"/><path d="M14 16.5L11 14h23l-3 2.5H14zM11 14V9h4v2h5V9h5v2h5V9h4v5H11z" stroke-linecap="butt"/><path d="M12 35.5h21M13 31.5h19M14 29.5h17M14 16.5h17M11 14h23" fill="none" stroke="#ececec" stroke-width="1" stroke-linejoin="miter"/></g></svg>

<?xml version="1.0" encoding="UTF-8" standalone="no"?>
<!DOCTYPE svg PUBLIC "-//W3C//DTD SVG 1.1//EN" "http://www.w3.org/Graphics/SVG/1.1/DTD/svg11.dtd">
<svg xmlns="http://www.w3.org/2000/svg" version="1.1" width="45" height="45">
<g style="opacity:1; fill:#000000; fill-opacity:1; fill-rule:evenodd; stroke:#000000; stroke-width:1.5; stroke-linecap:round;stroke-linejoin:round;stroke-miterlimit:4; stroke-dasharray:none; stroke-opacity:1;">
<path
d="M 9,39 L 36,39 L 36,36 L 9,36 L 9,39 z "
style="stroke-linecap:butt;" />
<path
d="M 12.5,32 L 14,29.5 L 31,29.5 L 32.5,32 L 12.5,32 z "
style="stroke-linecap:butt;" />
<path
d="M 12,36 L 12,32 L 33,32 L 33,36 L 12,36 z "
style="stroke-linecap:butt;" />
<path
d="M 14,29.5 L 14,16.5 L 31,16.5 L 31,29.5 L 14,29.5 z "
style="stroke-linecap:butt;stroke-linejoin:miter;" />
<path
d="M 14,16.5 L 11,14 L 34,14 L 31,16.5 L 14,16.5 z "
style="stroke-linecap:butt;" />
<path
d="M 11,14 L 11,9 L 15,9 L 15,11 L 20,11 L 20,9 L 25,9 L 25,11 L 30,11 L 30,9 L 34,9 L 34,14 L 11,14 z "
style="stroke-linecap:butt;" />
<path
d="M 12,35.5 L 33,35.5 L 33,35.5"
style="fill:none; stroke:#ececec; stroke-width:1; stroke-linejoin:miter;" />
<path
d="M 13,31.5 L 32,31.5"
style="fill:none; stroke:#ececec; stroke-width:1; stroke-linejoin:miter;" />
<path
d="M 14,29.5 L 31,29.5"
style="fill:none; stroke:#ececec; stroke-width:1; stroke-linejoin:miter;" />
<path
d="M 14,16.5 L 31,16.5"
style="fill:none; stroke:#ececec; stroke-width:1; stroke-linejoin:miter;" />
<path
d="M 11,14 L 34,14"
style="fill:none; stroke:#ececec; stroke-width:1; stroke-linejoin:miter;" />
</g>
</svg>
